invoice-text.svg

<svg fill="currentColor" viewBox="0 0 24 24"><path d="M3 3v19l3-2 3 2 3-2 3 2 3-2 3 2V3zm14 4v2H7V7zm-2 4v2H7v-2z"/></svg>

<svg  viewBox="0 0 24 24" fill="currentColor"><path  d="M3 3V22L6 20L9 22L12 20L15 22L18 20L21 22V3H3M17 7V9H7V7H17M15 11V13H7V11H15Z"/></svg>
